hand-wave-outline.svg

<svg fill="currentColor" viewBox="0 0 24 24"><path d="M7.03 4.95 3.5 8.5c-3.33 3.31-3.33 8.69 0 12s8.69 3.33 12 0l6-6c1-.97 1-2.56 0-3.54-.1-.12-.23-.23-.37-.32l.37-.39c1-.97 1-2.56 0-3.54-.14-.16-.33-.3-.5-.41.38-.92.21-2.02-.54-2.77-.87-.87-2.22-.96-3.2-.28a2.517 2.517 0 0 0-3.88-.42l-2.51 2.51c-.09-.14-.2-.27-.32-.39a2.53 2.53 0 0 0-3.52 0m1.41 1.42c.2-.2.51-.2.71 0s.2.51 0 .71l-3.18 3.18a3 3 0 0 1 0 4.24l1.41 1.41a5 5 0 0 0 1.12-5.36l6.3-6.3c.2-.2.51-.2.7 0s.21.51 0 .71l-4.59 4.6 1.41 1.41 6.01-6.01c.2-.2.51-.2.71 0s.2.51 0 .71l-6.01 6.01 1.41 1.41 4.95-4.95c.2-.2.51-.2.71 0s.2.51 0 .71l-5.66 5.65 1.41 1.42 3.54-3.54c.2-.2.51-.2.71 0s.2.51 0 .71l-6 6.01c-2.54 2.54-6.65 2.54-9.19 0s-2.54-6.65 0-9.19zM23 17c0 3.31-2.69 6-6 6v-1.5c2.5 0 4.5-2 4.5-4.5zM1 7c0-3.31 2.69-6 6-6v1.5c-2.5 0-4.5 2-4.5 4.5z"/></svg>

<svg  viewBox="0 0 24 24" fill="currentColor"><path  d="M7.03 4.95L3.5 8.5C.17 11.81 .17 17.19 3.5 20.5S12.19 23.83 15.5 20.5L21.5 14.5C22.5 13.53 22.5 11.94 21.5 10.96C21.4 10.84 21.27 10.73 21.13 10.64L21.5 10.25C22.5 9.28 22.5 7.69 21.5 6.71C21.36 6.55 21.17 6.41 21 6.3C21.38 5.38 21.21 4.28 20.46 3.53C19.59 2.66 18.24 2.57 17.26 3.25C17.16 3.1 17.05 2.96 16.92 2.83C15.95 1.86 14.36 1.86 13.38 2.83L10.87 5.34C10.78 5.2 10.67 5.07 10.55 4.95C9.58 4 8 4 7.03 4.95M8.44 6.37C8.64 6.17 8.95 6.17 9.15 6.37S9.35 6.88 9.15 7.08L5.97 10.26C7.14 11.43 7.14 13.33 5.97 14.5L7.38 15.91C8.83 14.46 9.2 12.34 8.5 10.55L14.8 4.25C15 4.05 15.31 4.05 15.5 4.25S15.71 4.76 15.5 4.96L10.91 9.56L12.32 10.97L18.33 4.96C18.53 4.76 18.84 4.76 19.04 4.96C19.24 5.16 19.24 5.47 19.04 5.67L13.03 11.68L14.44 13.09L19.39 8.14C19.59 7.94 19.9 7.94 20.1 8.14C20.3 8.34 20.3 8.65 20.1 8.85L14.44 14.5L15.85 15.92L19.39 12.38C19.59 12.18 19.9 12.18 20.1 12.38C20.3 12.58 20.3 12.89 20.1 13.09L14.1 19.1C11.56 21.64 7.45 21.64 4.91 19.1S2.37 12.45 4.91 9.91L8.44 6.37M23 17C23 20.31 20.31 23 17 23V21.5C19.5 21.5 21.5 19.5 21.5 17H23M1 7C1 3.69 3.69 1 7 1V2.5C4.5 2.5 2.5 4.5 2.5 7H1Z"/></svg>
